teeny/outline/mov.svg

<svg width="15" height="15" viewBox="0 0 15 15" fill="none" xmlns="http://www.w3.org/2000/svg">
<path d="M13.5 3.5H14V3.29289L13.8536 3.14645L13.5 3.5ZM10.5 0.5L10.8536 0.146447L10.7071 0H10.5V0.5ZM2.5 6.5L2.85355 6.14645C2.71055 6.00345 2.4955 5.96067 2.30866 6.03806C2.12182 6.11545 2 6.29777 2 6.5H2.5ZM3.5 7.5L3.14645 7.85355L3.5 8.20711L3.85355 7.85355L3.5 7.5ZM4.5 6.5H5C5 6.29777 4.87818 6.11545 4.69134 6.03806C4.5045 5.96067 4.28945 6.00345 4.14645 6.14645L4.5 6.5ZM10.5 9.5H10V9.70711L10.1464 9.85355L10.5 9.5ZM11.5 10.5L11.1464 10.8536C11.3417 11.0488 11.6583 11.0488 11.8536 10.8536L11.5 10.5ZM12.5 9.5L12.8536 9.85355L13 9.70711V9.5H12.5ZM2 5V1.5H1V5H2ZM13 3.5V5H14V3.5H13ZM2.5 1H10.5V0H2.5V1ZM10.1464 0.853553L13.1464 3.85355L13.8536 3.14645L10.8536 0.146447L10.1464 0.853553ZM2 1.5C2 1.22386 2.22386 1 2.5 1V0C1.67157 0 1 0.671573 1 1.5H2ZM1 12V13.5H2V12H1ZM2.5 15H12.5V14H2.5V15ZM14 13.5V12H13V13.5H14ZM12.5 15C13.3284 15 14 14.3284 14 13.5H13C13 13.7761 12.7761 14 12.5 14V15ZM1 13.5C1 14.3284 1.67157 15 2.5 15V14C2.22386 14 2 13.7761 2 13.5H1ZM3 11V6.5H2V11H3ZM2.14645 6.85355L3.14645 7.85355L3.85355 7.14645L2.85355 6.14645L2.14645 6.85355ZM3.85355 7.85355L4.85355 6.85355L4.14645 6.14645L3.14645 7.14645L3.85355 7.85355ZM4 6.5V11H5V6.5H4ZM8 7.5V9.5H9V7.5H8ZM7 9.5V7.5H6V9.5H7ZM7.5 10C7.22386 10 7 9.77614 7 9.5H6C6 10.3284 6.67157 11 7.5 11V10ZM8 9.5C8 9.77614 7.77614 10 7.5 10V11C8.32843 11 9 10.3284 9 9.5H8ZM7.5 7C7.77614 7 8 7.22386 8 7.5H9C9 6.67157 8.32843 6 7.5 6V7ZM7.5 6C6.67157 6 6 6.67157 6 7.5H7C7 7.22386 7.22386 7 7.5 7V6ZM10 6V9.5H11V6H10ZM10.1464 9.85355L11.1464 10.8536L11.8536 10.1464L10.8536 9.14645L10.1464 9.85355ZM11.8536 10.8536L12.8536 9.85355L12.1464 9.14645L11.1464 10.1464L11.8536 10.8536ZM13 9.5V6H12V9.5H13Z" fill="black"/>
</svg>

<svg viewBox="0 0 15 15" xmlns="http://www.w3.org/2000/svg"><path d="M13.5 3.5h.5v-.21l-.15-.15 -.36.35Zm-3-3l.35-.36 -.15-.15h-.21v.5Zm-8 6l.35-.36c-.15-.15-.36-.19-.55-.11 -.19.07-.31.25-.31.46h.5Zm1 1l-.36.35 .35.35 .35-.36 -.36-.36Zm1-1H5c0-.21-.13-.39-.31-.47 -.19-.08-.41-.04-.55.1l.35.35Zm6 3H10v.2l.14.14 .35-.36Zm1 1l-.36.35c.19.19.51.19.7 0l-.36-.36Zm1-1l.35.35 .14-.15v-.21h-.5ZM2 5V1.5H1V5h1Zm11-1.5V5h1V3.5h-1ZM2.5 1h8V0h-8v1Zm7.64-.15l3 2.99 .7-.71 -3-3.01 -.71.7Zm-8.15.64c0-.28.22-.5.5-.5v-1c-.83 0-1.5.67-1.5 1.5h1Zm-1 10.5v1.5h1v-1.5h-1Zm1.5 3h10v-1h-10v1Zm11.5-1.5v-1.5h-1v1.5h1Zm-1.5 1.5c.82 0 1.5-.68 1.5-1.5h-1c0 .27-.23.5-.5.5v1Zm-11.5-1.5c0 .82.67 1.5 1.5 1.5v-1c-.28 0-.5-.23-.5-.5h-1Zm2-2.5v-4.5h-1v4.5h1Zm-.86-4.15l1 1 .7-.71 -1-1 -.71.7Zm1.7 1l1-1 -.71-.71 -1 1 .7.7Zm.14-1.36v4.5h1v-4.5h-1Zm4 1v2h1v-2h-1Zm-1 2v-2h-1v2h1Zm.5.5c-.28 0-.5-.23-.5-.5h-1c0 .82.67 1.5 1.5 1.5v-1Zm.5-.5c0 .27-.23.5-.5.5v1c.82 0 1.5-.68 1.5-1.5h-1Zm-.5-2.5c.27 0 .5.22.5.5h1c0-.83-.68-1.5-1.5-1.5v1Zm0-1c-.83 0-1.5.67-1.5 1.5h1c0-.28.22-.5.5-.5v-1Zm2.5 0v3.5h1v-3.5h-1Zm.14 3.85l1 1 .7-.71 -1-1 -.71.7Zm1.7 1l1-1.01 -.71-.71 -1 .99 .7.7Zm1.14-1.36v-3.5h-1v3.5h1Z"/></svg>
